X: 894
T: Gallant Tipperary
N:"Collected by Cronin"
B:O'Neill's 894
Z:Transcribed by Dan G. Petersen, dangp@post6.tele.dk
M:6/8
L:1/8
K:D
(3(A/B/d/)|ded FGA|B2A A2(B/c/)|d2d ede|f2d d2(e/f/)|
gag fed|efd cBA|BAG FGA|B2A A2:|
(f/g/)|aba def|gab efg|aba fed|e2A A2(f/g/)|
aba fgf|efe d2A|BAG FGA|B2A A2:|
A|dAF dAF|B2A ABc|dAF dAF|G2E E2(3(A/B/d/)|
dAF BAF|Adf a2g|fed FGA|B2A A2:|
(f/g/)|afd cBA|BGG G2g|bge efd|cAA A2(f/g/)|
afd gfe|afd cBA|BAG FGA|B2A A2:|


